X:66
T:Bugle Horn,The. TJD.66
M:2/4
L:1/8
Q:1/4=120
S:T.J.Dixon MS2, Lincolnshire, early 19thC
R:quick step
A:Lincolnshire, Holton le Moor
Z:vmp.R.Greig2010
K:C
g|geec|c2GG|GfdB|c/B/c/d/ cc|geec|c2GG|AfdB|c3:|!
“rest added”z|c2Ge|c2Ge|cece|c2Gg|geec|c2GG|AfdB|c2c2|!
C2CC|C2C2|CECE|C2G,2|geec|c2G,G,|AfdB|c2c2|]

